src/svg/acciones/accion-scout-buscar.svg

<?xml version="1.0" encoding="UTF-8" standalone="no"?>
<!-- Generado por Andres Lacquaniti  -->

<svg
   xmlns:dc="http://purl.org/dc/elements/1.1/"
   xmlns:cc="http://creativecommons.org/ns#"
   xmlns:rdf="http://www.w3.org/1999/02/22-rdf-syntax-ns#"
   xmlns:svg="http://www.w3.org/2000/svg"
   xmlns="http://www.w3.org/2000/svg"
   xmlns:sodipodi="http://sodipodi.sourceforge.net/DTD/sodipodi-0.dtd"
   xmlns:inkscape="http://www.inkscape.org/namespaces/inkscape"
   version="1.1"
   id="Layer_1"
   x="0px"
   y="0px"
   width="15px"
   height="15px"
   viewBox="0 0 15 15"
   style="enable-background:new 0 0 15 15;"
   xml:space="preserve"
   sodipodi:docname="scout-buscar.svg"
   inkscape:version="0.92.0 r15299"><metadata
     id="metadata9"><rdf:RDF><cc:Work
         rdf:about=""><dc:format>image/svg+xml</dc:format><dc:type
           rdf:resource="http://purl.org/dc/dcmitype/StillImage" /><dc:title /></cc:Work></rdf:RDF></metadata><defs
     id="defs7" /><sodipodi:namedview
     pagecolor="#ffffff"
     bordercolor="#666666"
     borderopacity="1"
     objecttolerance="10"
     gridtolerance="10"
     guidetolerance="10"
     inkscape:pageopacity="0"
     inkscape:pageshadow="2"
     inkscape:window-width="1920"
     inkscape:window-height="996"
     id="namedview5"
     showgrid="false"
     inkscape:zoom="22.250293"
     inkscape:cx="8.0032214"
     inkscape:cy="2.8362546"
     inkscape:window-x="-8"
     inkscape:window-y="-8"
     inkscape:window-maximized="1"
     inkscape:current-layer="Layer_1" /><path
     inkscape:connector-curvature="0"
     style="display:inline;fill:#000000;stroke-width:0.04145813"
     d="M 6.0659864,0.4324341 C 2.9817545,0.43245533 0.4814956,2.932714 0.48147407,6.0169459 0.48141791,9.1012328 2.9816995,11.601577 6.0659864,11.601598 c 1.0824946,-0.0017 2.1411711,-0.317915 3.0472242,-0.910254 0.026891,0.04172 0.057712,0.0818 0.094305,0.118395 l 3.3739704,3.485033 c 0.276236,0.27624 0.720934,0.27624 0.997171,0 l 0.554092,-0.55409 c 0.276234,-0.276237 0.276234,-0.720932 0,-0.997171 L 10.758914,9.2580609 c -0.03024,-0.030245 -0.06269,-0.056473 -0.09652,-0.08009 0.641414,-0.9295244 0.985937,-2.031676 0.988107,-3.1610228 C 11.650483,2.9327154 9.1502236,0.43245668 6.0659912,0.43243604 Z m 0,0.8974404 C 8.6546487,1.3297751 10.753221,3.4282836 10.753201,6.0169459 10.753299,8.6056635 8.654704,10.704258 6.0659864,10.704159 3.4773778,10.704104 1.3789525,8.6055545 1.3790514,6.0169459 1.3790307,3.4283926 3.4774331,1.3299292 6.0659864,1.3298745 Z M 5.6495123,2.3023874 c -0.017719,-8.932e-4 -0.035521,8.932e-4 -0.050144,0.00452 C 5.5040224,2.3336405 5.0080508,2.9049777 4.8295183,3.196681 4.7341683,3.3526238 4.6031808,3.6764084 4.5559547,3.8743222 4.5292171,3.98259 4.5337091,3.9852424 4.8219968,4.033807 4.9828397,4.060536 5.3233088,4.097887 5.578475,4.115712 5.8337787,4.133538 6.1635973,4.14245 6.3118313,4.133538 7.0897198,4.088977 7.3799641,4.064928 7.4289293,4.034636 7.4734833,4.007898 7.4735503,3.960683 7.4308593,3.7789008 7.3666937,3.5053382 7.3060669,3.3819139 7.0703699,3.0426265 6.7990316,2.6518784 6.5129527,2.3336695 6.4095831,2.307738 6.3596801,2.2943692 6.2509047,2.3166682 6.1684741,2.3563448 6.0259002,2.4240641 6.0098736,2.4240358 5.8566059,2.3545234 5.788089,2.3233774 5.7085483,2.304265 5.6497616,2.3024294 h -1.425e-4 z m 0.8876884,0.6529874 c 0.013368,0 0.08377,0.1261141 0.1523813,0.2798304 0.069054,0.1537163 0.1741639,0.3310854 0.2338665,0.3939107 0.09802,0.1024745 0.1006992,0.1140204 0.026749,0.1126831 C 6.8223251,3.7399749 6.7300877,3.6669634 6.645433,3.5016675 6.5647861,3.343493 6.4864105,2.9555151 6.5349774,2.9555151 Z m -1.0800461,0.040117 h 0.00349 c 0.00444,0 0.00891,0.00442 0.00891,0.013369 0.031189,0.1198546 -0.1109734,0.5305608 -0.2170123,0.6366897 -0.054804,0.054801 -0.1407031,0.099316 -0.1919406,0.099316 -0.092229,0 -0.092225,-2.853e-4 0.013368,-0.1139412 0.059262,-0.06282 0.1679862,-0.2447082 0.2419461,-0.4042166 0.070399,-0.1514883 0.119408,-0.2312186 0.1412387,-0.2312186 z M 3.0357544,4.1230356 C 2.872678,4.1222307 2.7429437,4.1408512 2.6738833,4.1747071 2.5139316,4.2575833 2.4568689,4.3555792 2.4568689,4.5471667 c 0,0.1158414 0.026771,0.1640277 0.1341371,0.2411091 0.293177,0.2098557 0.6912357,0.3288283 1.2991466,0.3876399 0.2771322,0.026738 0.2958988,0.035622 0.3400044,0.1528003 0.044557,0.1136159 0.035558,0.1327773 -0.074936,0.2263445 -0.066833,0.056136 -0.1429488,0.1736987 -0.1692372,0.2610281 -0.040101,0.1350018 -0.035631,0.1822687 0.031202,0.3154892 0.1082679,0.2174268 0.254789,0.3140964 0.4773417,0.3140964 0.1795571,0 0.1867745,0.00442 0.2968252,0.2152014 C 5.0203652,7.0979608 5.3863895,7.4255705 5.7537,7.521542 5.9261309,7.566538 6.2054009,7.530472 6.4103086,7.440472 6.646453,7.3344321 6.9982393,6.9648283 7.1337747,6.6796765 7.2456079,6.4444261 7.2469476,6.4435819 7.4340823,6.4413527 7.7455202,6.4376043 7.9305077,6.2354529 7.9305077,5.8981267 7.9305077,5.7582229 7.9036539,5.7002916 7.79094,5.5866762 7.6519284,5.4476634 7.6520399,5.447285 7.7242207,5.3278759 7.7888295,5.2218363 7.8266919,5.2052668 8.0606039,5.1834345 8.7555311,5.1183855 9.3489439,4.918314 9.5168705,4.6918842 9.5872689,4.5974272 9.5917357,4.5631617 9.5525312,4.4379604 9.4638637,4.1692934 9.3907753,4.1376263 8.8711278,4.1425285 8.4826061,4.1462739 8.3204787,4.1692954 7.8494439,4.2944925 6.942747,4.5341993 6.3042515,4.5983394 5.4872419,4.5323985 4.9182698,4.4865094 4.7059059,4.4477178 4.0146783,4.26371 3.6769489,4.1737085 3.3110189,4.1243648 3.0390979,4.1230278 Z m 1.9005981,1.1450936 c 0.031189,-4.168e-4 0.060689,4.179e-4 0.092767,0.00268 0.2263441,0.013369 0.2303205,0.017902 0.2133908,0.1310707 -0.026738,0.1737642 0.054742,0.2913919 0.1982087,0.2913919 0.1448057,0 0.223634,-0.1181276 0.1977904,-0.2950136 L 5.62082,5.2788966 h 0.3380538 0.3381935 l -0.017825,0.1193696 c -0.026738,0.1751029 0.053074,0.2950137 0.1943085,0.2950137 0.1554971,0 0.2241661,-0.090473 0.203222,-0.2686885 L 6.6589476,5.2788962 h 0.2196589 c 0.1207404,0 0.2339268,-4.167e-4 0.2508591,-8.344e-4 0.017817,-4.169e-4 0.035526,0.091394 0.044429,0.2032229 0.00893,0.1791115 0.026786,0.2070765 0.1181177,0.2302447 0.058364,0.013369 0.1309434,0.00442 0.162132,-0.022291 0.044553,-0.035641 0.08032,-0.022281 0.1618543,0.058364 0.134558,0.1336667 0.1341105,0.2504386 0,0.384995 C 7.5104021,6.2381929 7.4448873,6.2444464 7.2038422,6.1727141 7.1334533,6.1504325 7.102178,6.1905197 6.9988091,6.4217631 6.8317275,6.7986988 6.6375376,7.03888 6.3825956,7.1850664 H 6.3817578 C 5.991008,7.4091804 5.6230709,7.3294729 5.262711,6.9422871 5.0809247,6.7471373 4.8189363,6.284623 4.8189363,6.1590657 c 0,-0.067278 -0.044469,-0.063714 -0.1424926,0.013369 -0.044553,0.035641 -0.1327931,0.06115 -0.1969546,0.06115 -0.2521789,0 -0.3768723,-0.3235787 -0.1915221,-0.4960076 0.1051504,-0.09802 0.131389,-0.1019054 0.2360946,-0.035517 0.1327737,0.082876 0.2111914,0.013351 0.212973,-0.181354 5.658e-4,-0.097577 0.013387,-0.196601 0.031201,-0.220216 0.013369,-0.017817 0.081074,-0.03106 0.1684009,-0.03106 z M 5.3689844,6.349152 c -0.02229,6.55e-4 -0.031209,0.013244 -0.040116,0.031059 -0.031192,0.086439 0.1025388,0.2152295 0.3016999,0.286517 0.089109,0.031194 0.2418713,0.058865 0.3394466,0.059758 0.2771315,0.00268 0.6308399,-0.1742487 0.6308399,-0.315489 0,-0.080646 -0.077065,-0.068536 -0.3074101,0.048195 C 6.0274491,6.5941941 5.8733107,6.5897309 5.5876686,6.4413673 5.4633618,6.3758761 5.4018989,6.348235 5.3675917,6.3495788 Z M 4.6767182,6.6881812 c -0.057921,0 -0.2423328,0.1906804 -0.3078272,0.3185534 -0.026741,0.049902 -0.046803,0.1460858 -0.046803,0.2138089 0,0.1808922 0.5211295,0.6559914 0.9615127,0.8764061 0.2508455,0.1256454 0.3060683,0.1670073 0.2223056,0.1670073 -0.1693115,0 -0.540896,0.1934507 -0.6830729,0.3551864 C 4.7528824,8.6988963 4.6583989,8.8374171 4.6125071,8.926972 4.5256221,9.097173 4.405245,9.5121033 4.405245,9.6406888 c 0,0.040097 0.013369,0.073962 0.026745,0.073962 0.013369,0 0.2330675,-0.1074699 0.4866754,-0.238463 C 5.2670856,9.2961857 5.4487084,9.1701232 5.6628852,8.960402 L 5.9463382,8.6832165 6.194412,8.9292015 C 6.3307512,9.0646485 6.567397,9.2490999 6.7200883,9.339547 7.0426671,9.5306879 7.4561984,9.719154 7.4863164,9.6893011 7.5175104,9.6581158 7.3993877,9.1852647 7.3053804,8.9723799 7.150772,8.6221773 6.7003406,8.2700834 6.3965195,8.2622848 6.3163145,8.26046 6.3390285,8.2401182 6.4954146,8.1777385 6.9231467,8.0044194 7.5666573,7.4696115 7.6079153,7.2536955 7.6346536,7.1169126 7.5534976,6.9431006 7.3957785,6.7945987 7.2834991,6.6890034 7.2581707,6.680515 7.2109419,6.7321999 7.1797569,6.7633849 7.133013,6.8734486 7.1049434,6.9719163 7.0376657,7.2089492 6.8754135,7.3756934 6.37702,7.7194795 L 5.9640276,8.0041868 5.5336245,7.7105658 C 5.0285028,7.3661544 4.9378565,7.2681487 4.8168433,6.9362586 4.7669436,6.7999196 4.7045663,6.6884635 4.677833,6.6884635 Z m 1.2884226,1.4509733 c 0.1871322,0 0.2482065,0.2387838 0.089147,0.350172 -0.050796,0.035641 -0.1065644,0.064626 -0.1243847,0.064626 -0.053467,0 -0.1982079,-0.1617678 -0.1982079,-0.2214704 0,-0.079753 0.1372087,-0.1929146 0.2334478,-0.1929146 z"
     id="path4574-9"
     sodipodi:nodetypes="cccccccccccccccccccccccccccccccccccccccccccsccsccccccsccccccscccccsccccccccccccccscccccsccscccccccccccscsccccccccccsccccccscsccsscccccccccccccccccccccsscc" /></svg>

<svg width="15px" height="15px" enable-background="new 0 0 15 15" version="1.1" viewBox="0 0 15 15" xmlns="http://www.w3.org/2000/svg">
 <path d="m6.066 0.43243c-3.0842 2.123e-5 -5.5845 2.5003-5.5845 5.5845-5.616e-5 3.0843 2.5002 5.5846 5.5845 5.5847 1.0825-0.0017 2.1412-0.31792 3.0472-0.91025 0.026891 0.04172 0.057712 0.0818 0.094305 0.1184l3.374 3.485c0.27624 0.27624 0.72093 0.27624 0.99717 0l0.55409-0.55409c0.27623-0.27624 0.27623-0.72093 0-0.99717l-3.3738-3.4855c-0.03024-0.030245-0.06269-0.056473-0.09652-0.08009 0.64141-0.92952 0.98594-2.0317 0.98811-3.161-1.8e-5 -3.0842-2.5003-5.5845-5.5845-5.5845zm0 0.89744c2.5887-9.94e-5 4.6872 2.0984 4.6872 4.6871 9.8e-5 2.5887-2.0985 4.6873-4.6872 4.6872-2.5886-5.5e-5 -4.687-2.0986-4.6869-4.6872-2.07e-5 -2.5886 2.0984-4.687 4.6869-4.6871zm-0.41647 0.97251c-0.017719-8.932e-4 -0.035521 8.932e-4 -0.050144 0.00452-0.095346 0.026733-0.59132 0.59807-0.76985 0.88977-0.09535 0.15594-0.22634 0.47973-0.27356 0.67764-0.026738 0.10827-0.022246 0.11092 0.26604 0.15948 0.16084 0.026729 0.50131 0.06408 0.75648 0.081905 0.2553 0.017826 0.58512 0.026738 0.73336 0.017826 0.77789-0.044561 1.0681-0.06861 1.1171-0.098902 0.044554-0.026738 0.044621-0.073953 0.00193-0.25574-0.064166-0.27356-0.12479-0.39699-0.36049-0.73627-0.27134-0.39075-0.55742-0.70896-0.66079-0.73489-0.049903-0.013369-0.15868 0.0089302-0.24111 0.048607-0.14257 0.067719-0.1586 0.067691-0.31187-0.0018214-0.068517-0.031146-0.14806-0.050258-0.20684-0.052094h-1.425e-4zm0.88769 0.65299c0.013368 0 0.08377 0.12611 0.15238 0.27983 0.069054 0.15372 0.17416 0.33109 0.23387 0.39391 0.09802 0.10247 0.1007 0.11402 0.026749 0.11268-0.12787-0.0018241-0.22011-0.074836-0.30476-0.24013-0.080647-0.15817-0.15902-0.54615-0.11046-0.54615zm-1.08 0.040117h0.00349c0.00444 0 0.00891 0.00442 0.00891 0.013369 0.031189 0.11985-0.11097 0.53056-0.21701 0.63669-0.054804 0.054801-0.1407 0.099316-0.19194 0.099316-0.092229 0-0.092225-2.853e-4 0.013368-0.11394 0.059262-0.06282 0.16799-0.24471 0.24195-0.40422 0.070399-0.15149 0.11941-0.23122 0.14124-0.23122zm-2.4214 1.1275c-0.16308-8.049e-4 -0.29281 0.017816-0.36187 0.051672-0.15995 0.082876-0.21701 0.18087-0.21701 0.37246 0 0.11584 0.026771 0.16403 0.13414 0.24111 0.29318 0.20986 0.69124 0.32883 1.2991 0.38764 0.27713 0.026738 0.2959 0.035622 0.34 0.1528 0.044557 0.11362 0.035558 0.13278-0.074936 0.22634-0.066833 0.056136-0.14295 0.1737-0.16924 0.26103-0.040101 0.135-0.035631 0.18227 0.031202 0.31549 0.10827 0.21743 0.25479 0.3141 0.47734 0.3141 0.17956 0 0.18677 0.00442 0.29683 0.2152 0.22901 0.43709 0.59504 0.76469 0.96235 0.86067 0.17243 0.044996 0.4517 0.00893 0.65661-0.08107 0.23614-0.10604 0.58793-0.47564 0.72347-0.7608 0.11183-0.23525 0.11317-0.23609 0.30031-0.23832 0.31144-0.0037484 0.49643-0.2059 0.49643-0.54323 0-0.1399-0.026854-0.19784-0.13957-0.31145-0.13901-0.13901-0.1389-0.13939-0.066719-0.2588 0.064609-0.10604 0.10247-0.12261 0.33638-0.14444 0.69493-0.065049 1.2883-0.26512 1.4563-0.49155 0.070398-0.094457 0.074865-0.12872 0.035661-0.25392-0.088668-0.26867-0.16176-0.30033-0.6814-0.29543-0.38852 0.0037454-0.55065 0.026767-1.0217 0.15196-0.9067 0.23971-1.5452 0.30385-2.3622 0.23791-0.56897-0.045889-0.78134-0.084681-1.4726-0.26869-0.33773-0.090002-0.70366-0.13935-0.97558-0.14068zm1.9006 1.1451c0.031189-4.168e-4 0.060689 4.179e-4 0.092767 0.00268 0.22634 0.013369 0.23032 0.017902 0.21339 0.13107-0.026738 0.17376 0.054742 0.29139 0.19821 0.29139 0.14481 0 0.22363-0.11813 0.19779-0.29501l-0.017689-0.11936h0.67625l-0.017825 0.11937c-0.026738 0.1751 0.053074 0.29501 0.19431 0.29501 0.1555 0 0.22417-0.090473 0.20322-0.26869l-0.017825-0.1457h0.21966c0.12074 0 0.23393-4.167e-4 0.25086-8.344e-4 0.017817-4.169e-4 0.035526 0.091394 0.044429 0.20322 0.00893 0.17911 0.026786 0.20708 0.11812 0.23024 0.058364 0.013369 0.13094 0.00442 0.16213-0.022291 0.044553-0.035641 0.08032-0.022281 0.16185 0.058364 0.13456 0.13367 0.13411 0.25044 0 0.385-0.1056 0.1056-0.17111 0.11185-0.41216 0.040117-0.070389-0.022282-0.10166 0.017806-0.20503 0.24905-0.16708 0.37694-0.36127 0.61712-0.61621 0.7633h-8.378e-4c-0.39075 0.22411-0.75869 0.14441-1.119-0.24278-0.18179-0.19515-0.44377-0.65766-0.44377-0.78322 0-0.067278-0.044469-0.063714-0.14249 0.013369-0.044553 0.035641-0.13279 0.06115-0.19695 0.06115-0.25218 0-0.37687-0.32358-0.19152-0.49601 0.10515-0.09802 0.13139-0.10191 0.23609-0.035517 0.13277 0.082876 0.21119 0.013351 0.21297-0.18135 5.658e-4 -0.097577 0.013387-0.1966 0.031201-0.22022 0.013369-0.017817 0.081074-0.03106 0.1684-0.03106zm0.43263 1.081c-0.02229 6.55e-4 -0.031209 0.013244-0.040116 0.031059-0.031192 0.086439 0.10254 0.21523 0.3017 0.28652 0.089109 0.031194 0.24187 0.058865 0.33945 0.059758 0.27713 0.00268 0.63084-0.17425 0.63084-0.31549 0-0.080646-0.077065-0.068536-0.30741 0.048195-0.266 0.135-0.42013 0.13054-0.70578-0.017825-0.12431-0.065491-0.18577-0.093132-0.22008-0.091788zm-0.69227 0.33903c-0.057921 0-0.24233 0.19068-0.30783 0.31855-0.026741 0.049902-0.046803 0.14609-0.046803 0.21381 0 0.18089 0.52113 0.65599 0.96151 0.87641 0.25085 0.12565 0.30607 0.16701 0.22231 0.16701-0.16931 0-0.5409 0.19345-0.68307 0.35519-0.069951 0.079753-0.16443 0.21827-0.21033 0.30783-0.086885 0.1702-0.20726 0.58513-0.20726 0.71372 0 0.040097 0.013369 0.073962 0.026745 0.073962 0.013369 0 0.23307-0.10747 0.48668-0.23846 0.34842-0.18 0.53004-0.30606 0.74422-0.51579l0.28345-0.27719 0.24807 0.24598c0.13634 0.13545 0.37298 0.3199 0.52568 0.41035 0.32258 0.19114 0.73611 0.37961 0.76623 0.34975 0.031194-0.031185-0.086929-0.50404-0.18094-0.71692-0.15461-0.3502-0.60504-0.7023-0.90886-0.7101-0.080205-0.0018248-0.057491-0.022167 0.098895-0.084546 0.42773-0.17332 1.0712-0.70813 1.1125-0.92404 0.026738-0.13678-0.054418-0.31059-0.21214-0.4591-0.11228-0.1056-0.13761-0.11408-0.18484-0.062399-0.031185 0.031185-0.077929 0.14125-0.106 0.23972-0.067278 0.23703-0.22953 0.40378-0.72792 0.74756l-0.41299 0.28471-0.4304-0.29362c-0.50512-0.34441-0.59577-0.44242-0.71678-0.77431-0.0499-0.13634-0.11228-0.2478-0.13901-0.2478zm1.2884 1.451c0.18713 0 0.24821 0.23878 0.089147 0.35017-0.050796 0.035641-0.10656 0.064626-0.12438 0.064626-0.053467 0-0.19821-0.16177-0.19821-0.22147 0-0.079753 0.13721-0.19291 0.23345-0.19291z" stroke-width=".041458"/>
</svg>
